icons/plexis/48/web-newsblur.svg

<svg viewBox="0 0 48 48" xmlns="http://www.w3.org/2000/svg" xmlns:xlink="http://www.w3.org/1999/xlink">
  <linearGradient id="a" gradientTransform="matrix(0 -1 1 0 -.0000015 47.999998)" gradientUnits="userSpaceOnUse" x1="1" x2="47">
    <stop offset="0" stop-color="#e87018"/>
    <stop offset="1" stop-color="#ea7a2a"/>
  </linearGradient>
  <path d="m47 24c0 22.703-.297 23-23 23-22.703 0-23-.297-23-23 0-22.703.297-23 23-23 22.703 0 23 .297 23 23z" fill="url(#a)"/>
  <path d="m25 10a15 15 0 0 0-15 15 15 15 0 0 0  15 15 15 15 0 0 0  15-15 15 15 0 0 0-15-15m0 2a13 13 0 0 1 13 13 13 13 0 0 1-13 13 13 13 0 0 1-13-13 13 13 0 0 1  13-13m0 1a12 12 0 0 0-12 12 12 12 0 0 0  12 12 12 12 0 0 0  12-12 12 12 0 0 0-12-12m0 1a11 11 0 0 1 11 11 11 11 0 0 1-11 11 11 11 0 0 1-11-11 11 11 0 0 1  11-11m0 1a10 10 0 0 0-10 10 10 10 0 0 0  10 10 10 10 0 0 0  10-10 10 10 0 0 0-10-10m0 2a8 8 0 0 1 8 8 8 8 0 0 1-8 8 8 8 0 0 1-8-8 8 8 0 0 1  8-8zm0 1a7 7 0 0 0-7 7 7 7 0 0 0  7 7 7 7 0 0 0  7-7 7 7 0 0 0-7-7z" opacity=".1"/>
  <path d="m24 9a15 15 0 0 0-15 15 15 15 0 0 0  15 15 15 15 0 0 0  15-15 15 15 0 0 0-15-15m0 2a13 13 0 0 1 13 13 13 13 0 0 1-13 13 13 13 0 0 1-13-13 13 13 0 0 1  13-13m0 1a12 12 0 0 0-12 12 12 12 0 0 0  12 12 12 12 0 0 0  12-12 12 12 0 0 0-12-12m0 1a11 11 0 0 1 11 11 11 11 0 0 1-11 11 11 11 0 0 1-11-11 11 11 0 0 1  11-11m0 1a10 10 0 0 0-10 10 10 10 0 0 0  10 10 10 10 0 0 0  10-10 10 10 0 0 0-10-10m0 2a8 8 0 0 1 8 8 8 8 0 0 1-8 8 8 8 0 0 1-8-8 8 8 0 0 1  8-8zm0 1a7 7 0 0 0-7 7 7 7 0 0 0  7 7 7 7 0 0 0  7-7 7 7 0 0 0-7-7z" fill="#fbe569"/>
</svg>

<svg xmlns="http://www.w3.org/2000/svg" viewBox="0 0 48 48">
 <defs>
  <linearGradient id="linearGradient3764" x1="1" x2="47" gradientUnits="userSpaceOnUse" gradientTransform="matrix(0,-1,1,0,-1.5e-6,47.999998)">
   <stop style="stop-color:#e87018;stop-opacity:1"/>
   <stop offset="1" style="stop-color:#ea7a2a;stop-opacity:1"/>
  </linearGradient>
 </defs>
 <g>
  
  
  
 </g>
 <g>
  <path d="m 47,24 C 47,46.703 46.703,47 24,47 1.297,47 1,46.703 1,24 1,1.297 1.297,1 24,1 46.703,1 47,1.297 47,24 z" style="fill:url(#linearGradient3764);fill-opacity:1"/>
 </g>
 <g>
  <g>
   <!-- color: #ea7a2a -->
  </g>
 </g>
 <g>
  
 </g>
 <path d="M 25 10 A 15 15 0 0 0 10 25 15 15 0 0 0 25 40 15 15 0 0 0 40 25 15 15 0 0 0 25 10 m 0 2 A 13 13 0 0 1 38 25 13 13 0 0 1 25 38 13 13 0 0 1 12 25 13 13 0 0 1 25 12 m 0 1 A 12 12 0 0 0 13 25 12 12 0 0 0 25 37 12 12 0 0 0 37 25 12 12 0 0 0 25 13 m 0 1 A 11 11 0 0 1 36 25 11 11 0 0 1 25 36 11 11 0 0 1 14 25 11 11 0 0 1 25 14 m 0 1 A 10 10 0 0 0 15 25 10 10 0 0 0 25 35 10 10 0 0 0 35 25 10 10 0 0 0 25 15 m 0 2 a 8 8 0 0 1 8 8 8 8 0 0 1 -8 8 8 8 0 0 1 -8 -8 8 8 0 0 1 8 -8 z m 0 1 a 7 7 0 0 0 -7 7 7 7 0 0 0 7 7 7 7 0 0 0 7 -7 7 7 0 0 0 -7 -7 z" style="fill:#000;opacity:0.1;fill-opacity:1;stroke:none"/>
 <path d="M 24 9 A 15 15 0 0 0 9 24 15 15 0 0 0 24 39 15 15 0 0 0 39 24 15 15 0 0 0 24 9 m 0 2 A 13 13 0 0 1 37 24 13 13 0 0 1 24 37 13 13 0 0 1 11 24 13 13 0 0 1 24 11 m 0 1 A 12 12 0 0 0 12 24 12 12 0 0 0 24 36 12 12 0 0 0 36 24 12 12 0 0 0 24 12 m 0 1 A 11 11 0 0 1 35 24 11 11 0 0 1 24 35 11 11 0 0 1 13 24 11 11 0 0 1 24 13 m 0 1 A 10 10 0 0 0 14 24 10 10 0 0 0 24 34 10 10 0 0 0 34 24 10 10 0 0 0 24 14 m 0 2 a 8 8 0 0 1 8 8 8 8 0 0 1 -8 8 8 8 0 0 1 -8 -8 8 8 0 0 1 8 -8 z m 0 1 a 7 7 0 0 0 -7 7 7 7 0 0 0 7 7 7 7 0 0 0 7 -7 7 7 0 0 0 -7 -7 z" style="fill:#fbe569;opacity:1;fill-opacity:1;stroke:none"/>
</svg>
